!!!COM: Charles Ives
!!!OTL: [T243_Ive-w21p3-4m16-19]
**kern	**kern	**dynam	**kern	**kern	**kern	**dynam	**kern
*part5	*part5	*part5	*part4	*part3	*part2	*part2	*part1
*staff6	*staff5	*	*staff4	*staff3	*staff2	*	*staff1
*I"Piano	*I"Piano	*	*I"Violoncello	*I"Viola	*I"Violin II	*	*I"Violin I
*I'Pno.	*I'Pno.	*	*I'Vc.	*I'Vla.	*I'Vln. II	*	*I'Vln. I
*clefF4	*clefF4	*	*clefF4	*clefC3	*clefG2	*	*clefG2
*k[]	*k[]	*	*k[]	*k[]	*k[]	*	*k[]
*C:	*C:	*	*C:	*C:	*C:	*	*C:
*M2/4	*M2/4	*	*M2/4	*M9/16	*M2/4	*	*M2/4
=16	=16	=16	=16	=16	=16	=16	=16
!	!	!	!	!	!	!	!LO:TX:t=[quarter]=38
!	!	!	!	!	!	!	!LO:TX:a:t=16
!	!LO:TX:b:t=[f]	!	!LO:TX:b:t=[f]	!LO:TX:b:t=[f]	!LO:TX:b:t=[f]	!	!LO:TX:b:t=[f]
4GGG 4GG	2r	.	2r	16.dLL	2r	.	2r
.	.	.	.	16.d-X	.	.	.
.	.	.	.	16.A-X	.	.	.
4BBB 4BB	.	.	.	.	.	.	.
.	.	.	.	[16.cJ	.	.	.
.	.	.	.	8cJ_	.	.	.
=17	=17	=17	=17	=-	=17	=17	=17
*8ba	*	*	*	*	*	*	*
!	!	!	!	!	!	!	!LO:TX:a:t=17
[2CCCn^^ [2FFF#X	[2CC#X^^ [2BB	f >	3BB-X	16c]	2r	.	2r
=-	=-	=-	=-	=17	=-	=-	=-
*	*	*	*	*M5/16	*	*	*
.	.	.	.	10BL	.	.	.
.	.	.	.	20BL	.	.	.
.	.	.	.	20d#X	.	.	.
.	.	.	.	[20c#XJJ	.	.	.
=-	=-	=-	=-	=18	=-	=-	=-
.	.	.	.	(6.c#]	.	.	.
.	.	.	[6G-X	.	.	.	.
=18	=18	=18	=18	=-	=18	=18	=18
!	!	!	!	!	!	!	!LO:TX:a:t=18
2CCCn^^_ 2FFF#X_	2CC#X^^_ 2BB_	f ] >	12G-L]	.	2r	.	2r
.	.	.	.	12dnL)	.	.	.
.	.	.	12Gn	.	.	.	.
.	.	.	.	12c#X	.	.	.
.	.	.	12BBnJ	.	.	.	.
.	.	.	.	12GnJ	.	.	.
.	.	.	16CLL	.	.	.	.
=-	=-	=-	=-	=19	=-	=-	=-
.	.	.	16BB	8.F#XL	.	.	.
.	.	.	16FF#X	.	.	.	.
.	.	.	[16AA#XJJ	.	.	.	.
=19	=19	=19	=19	=-	=19	=19	=19
!	!	!	!	!	!	!	!LO:TX:a:t=19
*	*	*	*M6/16	*	*M6/16	*	*
2CCCn^^_ 2FFF#X_	2CC#X^^_ 2BB_	f ] > ]	8AA#L]	8.A#X	4ff	f	4.r
.	.	.	16AA-XL	.	.	.	.
.	.	.	16GGn	8.C^^J 8.B	.	.	.
.	.	.	16DD	.	[8an	.	.
.	.	.	[16GG-XJJ	.	.	.	.
.	.	.	.	.	.	.	.
.	.	.	.	.	.	.	.
*X8ba	*	*	*	*	*	*	*
=	=	=	=	=	=	=	=
*-	*-	*-	*-	*-	*-	*-	*-
!!!system-decoration: [(s1,s2,s3,s4)][({(s5,s6)})]
!!!EED: Daniel Wright
!!!EEV: 2022/04/07
